svgs/thin/person-to-portal.svg

<svg xmlns="http://www.w3.org/2000/svg" viewBox="0 0 512 512"><!--! Font Awesome Pro 6.3.0 by @fontawesome - https://fontawesome.com License - https://fontawesome.com/license (Commercial License) Copyright 2023 Fonticons, Inc. --><path d="M276 104c28.71 0 52-23.29 52-52S304.7 0 276 0C247.3 0 224 23.29 224 52S247.3 104 276 104zM276 16c19.85 0 36 16.15 36 36c0 19.85-16.15 36-36 36C256.2 88 240 71.85 240 52C240 32.15 256.2 16 276 16zM286.9 261.1c8 16.25 24.99 26.88 43.11 26.88l53.1-.0045c17.62 0 32-14.37 32-31.1c0-17.75-14.38-32-32-32l-44.01 .0045l-26.1-53.25c-12.5-25.5-35.39-44.23-61.76-50.98L181 98.64C173.6 96.85 165.1 95.97 158.5 95.97C137.6 95.96 117.1 102.8 100.2 115.8l-39.71 30.47c-14 10.75-16.64 30.74-5.891 44.87c6.291 8.193 15.8 12.51 25.41 12.51c6.807 0 13.66-2.163 19.46-6.62L139.1 166.6C145.1 162.1 152.1 159.8 158.7 159.8c2.018 0 3.91 .1569 5.769 .6003l14.69 4.333L141.7 252.2C129.1 281.6 140.4 316.3 167.1 332.5l84.98 50.18L225.5 470.4c-5.25 16.88 4.083 34.86 20.96 40.11C249.6 511.5 252.9 512 256 512c13.62 0 26.25-8.692 30.5-22.44l31.72-101.1c5.875-20.75-2.959-43.13-21.71-54.38L235.3 297.1l31.31-78.34L286.9 261.1zM251.8 213.7L220.5 292.1C217.6 299.4 220.4 307.8 227.2 311.8l61.03 36.07c12.51 7.508 18.51 22.43 14.72 35.86l-31.77 101.1C269.1 491.5 263 496 256 496c-1.514 0-3.113-.2559-4.746-.7793c-4.062-1.264-7.391-4.045-9.369-7.834c-1.99-3.807-2.383-8.16-1.117-12.23l27.5-87.75c2.225-7.096-.7344-14.79-7.141-18.57L176.1 318.7C155.3 306.5 146.8 280.6 156.3 258.6l37.5-87.5C195.6 166.8 195.5 162.1 193.6 157.9C191.6 153.8 187.1 150.7 183.6 149.4L168.2 144.9C165.1 144.2 161.9 143.8 158.7 143.8c-10.29 0-20.66 3.564-29.27 10.09L89.76 184.3c-2.816 2.164-6.182 3.307-9.729 3.307c-5.035 0-9.668-2.271-12.67-6.18C61.99 174.4 63.28 164.3 70.24 158.9l39.74-30.49C124.1 117.7 140.8 111.1 158.5 111.1c6.293 0 12.61 .748 17.94 1.996l71.71 21.29c21.84 5.588 41.03 21.49 51.35 42.55l26.04 53.3C328.2 236.6 333.8 240 339.9 240H384c8.822 0 16 7.178 16 16S392.8 272 384 272h-54c-11.93 0-23.49-7.211-28.75-17.89l-20.25-41.5c-2.688-5.51-8.279-8.982-14.38-8.982c-.1992 0-.4004 .0039-.5996 .0098C259.7 203.9 254.1 207.8 251.8 213.7zM146.4 364.6l-15.5 24.31C126.5 395.8 118.9 400 110.7 400H32c-8.828 0-16-7.188-16-16s7.172-16 16-16h63.13c2.766 0 5.328-1.438 6.797-3.781l24.88-40c2.328-3.75 1.188-8.688-2.578-11C120.5 310.8 115.5 312 113.2 315.8L90.67 352l-58.68-.0039C14.35 351.1 0 366.4 0 384s14.35 31.99 31.99 31.99L110.7 416c13.73 0 26.34-6.906 33.73-18.5l15.5-24.31c2.375-3.75 1.281-8.688-2.453-11.06C153.8 359.8 148.9 360.9 146.4 364.6zM431.1 0c-34.41 0-62.2 59.45-74.34 159c-.5313 4.391 2.578 8.375 6.969 8.906c4.344 .7031 8.391-2.562 8.906-6.969C385.1 65.8 411.7 16 432 16c30.27 0 64 98.56 64 240s-33.73 240-64 240c-20.27 0-46.86-49.8-58.47-144.1c-.5313-4.406-4.719-7.578-8.906-6.969c-4.391 .5313-7.5 4.516-6.969 8.906c12.14 99.58 39.94 159 74.34 159C483.1 511.1 512 380.1 512 255.1S483.1 0 431.1 0z"/></svg>

<svg xmlns="http://www.w3.org/2000/svg" viewBox="0 0 512 512"><!-- Font Awesome Pro 6.0.0-alpha2 by @fontawesome - https://fontawesome.com License - https://fontawesome.com/license (Commercial License) --><path d="M276 104C304.709 104 328 80.709 328 52S304.709 0 276 0C247.293 0 224 23.291 224 52S247.293 104 276 104ZM276 16C295.852 16 312 32.148 312 52C312 71.85 295.852 88 276 88C256.15 88 240 71.85 240 52C240 32.148 256.15 16 276 16ZM286.875 261.125C294.875 277.375 311.875 288 330 288H384C401.625 288 416 273.625 416 256C416 238.25 401.625 224 384 224H340L313.875 170.75C301.375 145.25 278.5 126.5 252.125 119.75L181 98.625C173.545 96.844 165.998 95.967 158.51 95.967C137.627 95.965 117.18 102.775 100.25 115.75L60.5 146.25C46.5 157 43.875 177 54.625 191.125C60.916 199.318 70.42 203.615 80.027 203.615C86.834 203.615 93.693 201.457 99.5 197L139.125 166.625C145.045 162.137 152.133 159.838 158.66 159.838C160.678 159.838 162.641 160.057 164.5 160.5L179.125 164.75L141.625 252.25C129 281.625 140.375 316.25 168 332.5L253 382.625L225.5 470.375C220.25 487.25 229.625 505.25 246.5 510.5C249.625 511.5 252.875 512 256 512C269.625 512 282.25 503.25 286.5 489.5L318.25 388.5C324.125 367.75 315.25 345.375 296.5 334.125L235.375 298.001L266.625 219.625L286.875 261.125ZM251.764 213.699L220.514 292.074C217.592 299.4 220.445 307.762 227.234 311.773L288.268 347.844C300.781 355.352 306.781 370.277 302.986 383.701L271.215 484.775C269.139 491.488 263.025 496 256 496C254.486 496 252.887 495.744 251.254 495.221C247.191 493.957 243.863 491.176 241.885 487.387C239.895 483.58 239.502 479.227 240.768 475.16L268.268 387.408C270.492 380.313 267.533 372.619 261.127 368.842L176.113 318.709C155.346 306.492 146.84 280.639 156.332 258.553L193.832 171.053C195.637 166.84 195.549 162.057 193.592 157.912C191.633 153.77 187.99 150.664 183.59 149.385L168.207 144.934C165.148 144.207 161.936 143.838 158.66 143.838C148.367 143.838 137.998 147.402 129.391 153.926L89.756 184.309C86.939 186.473 83.574 187.615 80.027 187.615C74.992 187.615 70.359 185.344 67.357 181.436C61.986 174.377 63.281 164.287 70.24 158.943L109.982 128.449C124.055 117.666 140.836 111.965 158.51 111.967C164.803 111.967 171.119 112.715 176.445 113.963L248.158 135.25C269.994 140.838 289.189 156.742 299.512 177.797L325.635 231.047C328.324 236.527 333.896 240 340 240H384C392.822 240 400 247.178 400 256S392.822 272 384 272H330C318.074 272 306.514 264.789 301.254 254.107L281.004 212.607C278.316 207.098 272.725 203.625 266.629 203.625C266.43 203.625 266.229 203.629 266.029 203.635C259.701 203.871 254.107 207.816 251.764 213.699ZM146.438 364.562L130.938 388.875C126.5 395.844 118.938 400 110.703 400H32C23.172 400 16 392.812 16 384S23.172 368 32 368H95.125C97.891 368 100.453 366.562 101.922 364.219L126.797 324.219C129.125 320.469 127.984 315.531 124.219 313.219C120.531 310.844 115.547 312.031 113.203 315.781L90.672 352H32C14.359 352 0 366.344 0 384S14.359 416 32 416H110.703C124.438 416 137.047 409.094 144.438 397.5L159.938 373.188C162.313 369.438 161.219 364.5 157.484 362.125C153.828 359.781 148.859 360.875 146.438 364.562ZM432 0C397.594 0 369.797 59.453 357.656 159.031C357.125 163.422 360.234 167.406 364.625 167.938C368.969 168.641 373.016 165.375 373.531 160.969C385.141 65.797 411.734 16 432 16C462.266 16 496 114.562 496 256S462.266 496 432 496C411.734 496 385.141 446.203 373.531 351.031C373 346.625 368.813 343.453 364.625 344.063C360.234 344.594 357.125 348.578 357.656 352.969C369.797 452.547 397.594 512 432 512C483.969 512 512 380.109 512 256S483.969 0 432 0Z"/></svg>
